X:1
T: All Alive
M: 6/8
L: 1/8
R: jig
K:Emin
(E/F/)|"Em"GBG AFA|"Em"G(3EEE E2F|"G"GBG ABG|"D"F(3DDD D2.F|
"G"G>FG "Am"AGA|"G"B2e "Em"edc|"G"BAG "D"(F/G/A)F|"Em"G(3EEE E2:|
F|"G"G>Be dBG|d.B.G d.B.G|"D"F>Ad AFD|A.F.D A.F.D|
"G"G>Be dBG|g2e .dBG|"Am"(.A/.B/.c)A "D"(.F/.G/.A)F|"Em"G(3EEE E2:|
